!!!SOCIAL_FUNCTION:	songs for children
!!!PDT:	1932
!!!OTL: No_127_Why_Did_You_Cry?.krn
!!!REG: Southwest
!!!LANG: Non-Tone
!!!LING_GROUP: Yuman-Cochimi
**kern
*staff1
=1-
*clefF4
*k[b-]
*M2/4
8r
8A\
16B-\LL
16B-\J
8F\J
=2
8.A\L
16G\Jk
8.A\L
16G\Jk
=3
8A\
16r
16D\
16D\LL
16D\J
8G\J
=4
8.A\L
16G\Jk
8.G\L
16F\Jk
=5
8F\
16r
16F\
24F\LL
24F\
24F\
24G\
24G\
24F\JJ
=6
8.G\L
16F\Jk
8.G\L
16F\Jk
=7
16F\
16r
8A\
12c\L
12c\
12G\J
=8
8.A\L
16G\Jk
8.A\L
16G\Jk
=9
8A\
16r
16D\
16D\LL
16D\J
8G\J
=10
8.A\L
16G\Jk
8.G\L
16F\Jk
=11
8F\
16r
16F\
24F\LL
24F\
24F\
24G\
24G\
24F\JJ
=12
8.G\L
16F\Jk
8.G\L
16F\Jk
=13
4F\
4r
==
*-
